icons/AffinityDesigner.svg

<svg width="16" height="16" viewBox="0 0 16 16" fill="none" xmlns="http://www.w3.org/2000/svg">
<g clip-path="url(#clip0_2179_3814)">
<path fill-rule="evenodd" clip-rule="evenodd" d="M14.4375 0C15.2999 0 16 0.700124 16 1.5625V14.4375C16 15.2998 15.2999 16 14.4375 16H1.5625C0.700126 16 0 15.2998 0 14.4375V1.5625C0 0.700124 0.700126 0 1.5625 0H14.4375ZM14.2031 14.8281C14.5464 14.8281 14.8255 14.5507 14.8281 14.208V10.1582H5.19938L7.89547 14.8281H14.2031ZM1.17188 11.4611V14.2031C1.17188 14.5481 1.45188 14.8281 1.79688 14.8281H7.28094L4.41531 9.86452L9.43391 1.17188H7.11235L1.17188 11.4611ZM6.43672 9.62567H8.78391L6.97578 6.49393L5.80157 8.52783C5.67047 8.75467 5.67047 9.03435 5.80157 9.26119C5.9325 9.48817 6.17469 9.62567 6.43672 9.62567ZM14.8281 1.79201C14.8255 1.4493 14.5464 1.17188 14.2031 1.17188H10.0484L7.28297 5.9617L9.39876 9.62567H14.8281V1.79201Z" fill="#FF00FF"/>
</g>
<defs>
<clipPath id="clip0_2179_3814">
<rect width="16" height="16" fill="white"/>
</clipPath>
</defs>
</svg>

<svg width="16" height="16" fill="none" xmlns="http://www.w3.org/2000/svg"><g clip-path="url(#a)"><path fill-rule="evenodd" clip-rule="evenodd" d="M14.438 0C15.3 0 16 .7 16 1.563v12.874C16 15.3 15.3 16 14.437 16H1.563C.7 16 0 15.3 0 14.437V1.563C0 .7.7 0 1.563 0h12.874zm-.235 14.828a.625.625 0 0 0 .625-.62v-4.05H5.2l2.696 4.67h6.308zM1.172 11.461v2.742c0 .345.28.625.625.625H7.28L4.415 9.865l5.019-8.693H7.112l-5.94 10.29zm5.265-1.835h2.347L6.976 6.494 5.802 8.528a.733.733 0 0 0 .635 1.098zm8.391-7.834a.625.625 0 0 0-.625-.62h-4.155l-2.765 4.79 2.116 3.664h5.43V1.792z" fill="#F0F"/></g><defs><clipPath id="a"><path fill="#fff" d="M0 0h16v16H0z"/></clipPath></defs></svg>
